X:29
T:La ch?vre
R:---
C:Limousin ?
I:abc2nwc
L:1/8
Z:Transcrit et/ou corrig? par Michel BELLON - 2007-09-06
Z:Pour toute observation mailto:galouvielle@free.fr
M:6/8
K:C
G | c2d e2f | d2e !breath!c2G | c2d e2f | d3- d2 ::
w:Elle a man-g? des choux la ch?vre elle a man-g? des choux_
z | e2d c2B | A3 G2G | G2c B2c | d3 d3 | e2d c2B | A3 G3 | G2c B2d | c6 :|
w:Des choux des choux ra-ves d'la chi-co-r?e sau-va-ge des choux des choux ra-ves et des pis-sen-lits.
<end>
<start>
